src/images/Tools/React.svg

<svg fill="none" height="50" viewBox="0 0 50 50" width="50" xmlns="http://www.w3.org/2000/svg" xmlns:xlink="http://www.w3.org/1999/xlink"><clipPath id="a"><path d="m0 0h50v50h-50z"/></clipPath><mask id="b" height="30" maskUnits="userSpaceOnUse" width="34" x="8" y="10"><path d="m8 10h33.7186v30h-33.7186z" fill="#fff"/></mask><g clip-path="url(#a)"><path d="m0 0h50v50h-50z" fill="#2a2c33"/><g mask="url(#b)"><path d="m24.857 28.0053c1.6598 0 3.0053-1.3455 3.0053-3.0053s-1.3455-3.0054-3.0053-3.0054-3.0054 1.3456-3.0054 3.0054 1.3456 3.0053 3.0054 3.0053z" fill="#61dafb"/><g stroke="#61dafb"><path d="m24.8567 31.1574c8.9063 0 16.1263-2.7567 16.1263-6.1573s-7.22-6.1573-16.1263-6.1573-16.12623 2.7567-16.12623 6.1573 7.21993 6.1573 16.12623 6.1573z"/><path d="m19.527 28.0786c4.4531 7.713 10.4505 12.5874 13.3955 10.8871s1.7224-9.3314-2.7307-17.0445c-4.4532-7.713-10.4506-12.58733-13.3956-10.8871-2.945 1.7003-1.7224 9.3314 2.7308 17.0445z"/><path d="m19.5231 21.9213c-4.4532 7.7131-5.6758 15.3441-2.7308 17.0444s8.9424-3.174 13.3956-10.8871c4.4531-7.7131 5.6757-15.3441 2.7307-17.0444-2.945-1.70037-8.9424 3.174-13.3955 10.8871z"/></g></g><path d="m29 29h12v12h-12z" fill="#2a2c33"/><g stroke="#fff" stroke-linecap="round" stroke-linejoin="round" stroke-miterlimit="10"><path d="m29 35.5459h12"/><path d="m39.9094 37.7275h-9.8188c-.1433 0-.2852-.0282-.4175-.0831-.1324-.0548-.2526-.1352-.3539-.2365-.1013-.1014-.1816-.2217-.2364-.3541s-.0829-.2743-.0828-.4176v-6.5456c0-.2893.1149-.5666.3194-.7712.2046-.2045.4819-.3194.7712-.3194h9.8188c.2893 0 .5666.1149.7712.3194.2045.2046.3194.4819.3194.7712v6.5456c.0001.1433-.028.2852-.0828.4176s-.1351.2527-.2364.3541c-.1013.1013-.2215.1817-.3539.2365-.1323.0549-.2742.0831-.4175.0831z"/><path d="m31.1797 41h7.6363"/><path d="m37.7273 41c-.2892 0-.5666-.1149-.7712-.3194-.2045-.2045-.3194-.4819-.3194-.7712v-2.1819"/><path d="m32.2734 41c.2893 0 .5667-.1149.7712-.3194s.3194-.4819.3194-.7712v-2.1819"/></g></g></svg>

<svg width="50" height="50" viewBox="0 0 50 50" fill="none" xmlns="http://www.w3.org/2000/svg">
<rect width="50" height="50" fill="#2A2C33"/>
<g clip-path="url(#clip0_265_3692)">
<path d="M24.8589 28.0053C26.5187 28.0053 27.8642 26.6598 27.8642 25C27.8642 23.3402 26.5187 21.9946 24.8589 21.9946C23.1991 21.9946 21.8535 23.3402 21.8535 25C21.8535 26.6598 23.1991 28.0053 24.8589 28.0053Z" fill="#61DAFB"/>
<path d="M24.8587 31.1573C33.765 31.1573 40.985 28.4006 40.985 25C40.985 21.5994 33.765 18.8427 24.8587 18.8427C15.9524 18.8427 8.73242 21.5994 8.73242 25C8.73242 28.4006 15.9524 31.1573 24.8587 31.1573Z" stroke="#61DAFB"/>
<path d="M19.5273 28.0787C23.9804 35.7917 29.9778 40.6661 32.9228 38.9658C35.8678 37.2655 34.6452 29.6344 30.1921 21.9213C25.7389 14.2083 19.7415 9.33393 16.7965 11.0342C13.8515 12.7345 15.0741 20.3656 19.5273 28.0787Z" stroke="#61DAFB"/>
<path d="M19.526 21.9214C15.0728 29.6345 13.8502 37.2655 16.7952 38.9658C19.7402 40.6661 25.7376 35.7918 30.1908 28.0787C34.6439 20.3656 35.8665 12.7346 32.9215 11.0343C29.9765 9.33397 23.9791 14.2083 19.526 21.9214Z" stroke="#61DAFB"/>
</g>
<rect width="12" height="12" transform="translate(29 29)" fill="#2A2C33"/>
<path d="M29 35.5457H41" stroke="white" stroke-miterlimit="10" stroke-linecap="round" stroke-linejoin="round"/>
<path d="M39.9094 37.7275H30.0906C29.9473 37.7275 29.8054 37.6993 29.6731 37.6444C29.5407 37.5896 29.4205 37.5092 29.3192 37.4079C29.2179 37.3065 29.1376 37.1862 29.0828 37.0538C29.028 36.9214 28.9999 36.7795 29 36.6362V30.0906C29 29.8013 29.1149 29.524 29.3194 29.3194C29.524 29.1149 29.8013 29 30.0906 29H39.9094C40.1987 29 40.476 29.1149 40.6806 29.3194C40.8851 29.524 41 29.8013 41 30.0906V36.6362C41.0001 36.7795 40.972 36.9214 40.9172 37.0538C40.8624 37.1862 40.7821 37.3065 40.6808 37.4079C40.5795 37.5092 40.4593 37.5896 40.3269 37.6444C40.1946 37.6993 40.0527 37.7275 39.9094 37.7275Z" stroke="white" stroke-miterlimit="10" stroke-linecap="round" stroke-linejoin="round"/>
<path d="M31.1816 41H38.8179" stroke="white" stroke-miterlimit="10" stroke-linecap="round" stroke-linejoin="round"/>
<path d="M37.7273 41C37.4381 41 37.1607 40.8851 36.9561 40.6806C36.7516 40.4761 36.6367 40.1987 36.6367 39.9094V37.7275" stroke="white" stroke-miterlimit="10" stroke-linecap="round" stroke-linejoin="round"/>
<path d="M32.2734 41C32.5627 41 32.8401 40.8851 33.0446 40.6806C33.2491 40.4761 33.364 40.1987 33.364 39.9094V37.7275" stroke="white" stroke-miterlimit="10" stroke-linecap="round" stroke-linejoin="round"/>
<defs>
<clipPath id="clip0_265_3692">
<rect width="33.7186" height="30" fill="white" transform="translate(8 10)"/>
</clipPath>
</defs>
</svg>
